X:393
T:The mill burn
R:Reel
O:Scotland
B:Kerr's Third p11
S:Kerr's Third p11
Z:Transcription, chords:Mike Long
M:C|
L:1/8
K:A
E|\
"A"A2 (cA) "E"GABc|"D"dFBA "E"GBEG|"A"A2(cA) "D"Bcdf|"E"ecdB "A"A/A/A A:|\
B|\
"A"Aaga fedc|"D"dFBA "E"GBEG|
"A"Aaga fedc|"D"dfec "A"A/A/A AB|\
"A"Aaga fedc|"D"dFBA "E"GBEG|"A"AcBd "D"cedf|"E"ecdB "A"A/A/A A|]
